content/img/promos/card-offline-storage.svg

<svg viewBox="0 0 480 360" fill="none" xmlns="http://www.w3.org/2000/svg"><mask id="mask0" mask-type="alpha" maskUnits="userSpaceOnUse" x="0" y="0" width="480" height="360"><path d="M0 12C0 5.37259 5.37258 0 12 0H480V360H12C5.37257 360 0 354.627 0 348V12Z" fill="#7580F4"/></mask><g mask="url(#mask0)"><path d="M0 12C0 5.37259 5.37258 0 12 0H480V360H12C5.37257 360 0 354.627 0 348V12Z" fill="#242C88"/><g style="mix-blend-mode:overlay"><g filter="url(#filter0_i)"><path d="M96.7103 206.423L114.116 283.86C116.794 298.546 132.86 310.562 150.266 310.562H329.678C345.744 310.562 361.811 298.546 365.828 283.86L383.233 206.423C387.25 186.397 375.2 169.04 353.778 169.04H127.505C106.083 169.04 92.6936 186.397 96.7103 206.423Z" fill="#E7F4FF"/></g><mask id="mask1" mask-type="alpha" maskUnits="userSpaceOnUse" x="112" y="185" width="256" height="115"><path opacity="0.5" d="M149.77 299.389H330.232C341.586 299.389 351.52 288.285 354.359 274.009L367.645 204.214C369.065 194.696 363.388 185.179 354.872 185.179H125.129C116.614 185.179 110.937 194.696 112.356 204.214L124.223 274.009C127.062 289.872 136.997 299.389 149.77 299.389Z" fill="#F9FAFD"/></mask><g mask="url(#mask1)"><g opacity="0.7" filter="url(#filter1_i)"><path d="M149.77 299.389H330.232C341.586 299.389 351.52 288.285 354.359 274.009L367.645 204.213C369.065 194.696 363.388 185.178 354.872 185.178H125.129C116.614 185.178 110.937 194.696 112.356 204.213L124.223 274.009C127.062 289.871 136.997 299.389 149.77 299.389Z" fill="#7580F4"/></g><path opacity="0.4" d="M152.399 267.595H327.604C338.627 267.595 348.273 256.672 351.029 242.629L363.928 173.971C365.306 164.609 359.794 155.247 351.527 155.247H128.476C120.208 155.247 114.696 164.609 116.074 173.971L127.596 242.629C130.352 258.233 139.997 267.595 152.399 267.595Z" fill="#0013DD"/><path opacity="0.4" d="M161.159 229.249H318.844C328.765 229.249 337.446 219.412 339.926 206.765L351.536 144.936C352.776 136.504 347.815 128.073 340.375 128.073H139.628C132.188 128.073 127.227 136.504 128.467 144.936L138.837 206.765C141.317 220.817 149.998 229.249 161.159 229.249Z" fill="#0011C8"/><path opacity="0.5" d="M169.918 194.489H310.082C318.901 194.489 326.617 185.739 328.822 174.488L339.141 119.487C340.244 111.986 335.834 104.486 329.22 104.486H150.779C144.165 104.486 139.756 111.986 140.858 119.487L150.076 174.488C152.28 186.989 159.997 194.489 169.918 194.489Z" fill="#000FAF"/></g><path opacity="0.85" d="M358.712 141.729H122.646C118.576 141.729 115.863 138.75 115.863 134.28C115.863 129.811 118.576 126.832 122.646 126.832H357.355C361.425 126.832 364.139 129.811 364.139 134.28C364.139 138.75 361.425 141.729 358.712 141.729Z" fill="#E7F4FF"/><path opacity="0.7" d="M346.275 104.486H135.089C131.002 104.486 128.277 101.507 128.277 97.0378C128.277 92.5686 131.002 89.5892 135.089 89.5892H344.913C349 89.5892 351.725 92.5686 351.725 97.0378C351.725 101.507 349 104.486 346.275 104.486Z" fill="#E7F4FF"/><path opacity="0.5" d="M330.195 69.7266H149.804C145.825 69.7266 143.172 66.7472 143.172 62.2781C143.172 57.809 145.825 54.8296 149.804 54.8296H330.195C334.175 54.8296 336.828 57.809 336.828 62.2781C336.828 66.7472 334.175 69.7266 330.195 69.7266Z" fill="#E7F4FF"/><path opacity="0.3" d="M314.336 37.4497H165.664C161.852 37.4497 159.311 34.4703 159.311 30.0012C159.311 25.5321 161.852 22.5527 165.664 22.5527H314.336C318.148 22.5527 320.69 25.5321 320.69 30.0012C320.69 34.4703 318.148 37.4497 314.336 37.4497Z" fill="#E7F4FF"/><path opacity="0.15" d="M301.954 8.89704H178.046C174.253 8.89704 171.724 5.91763 171.724 1.44852C171.724 -3.02059 174.253 -6 178.046 -6H301.954C305.747 -6 308.276 -3.02059 308.276 1.44852C308.276 5.91763 305.747 8.89704 301.954 8.89704Z" fill="#E7F4FF"/></g><g opacity="0.6"><g filter="url(#filter2_i)"><path d="M96.7103 206.423L114.116 283.86C116.794 298.546 132.86 310.562 150.266 310.562H329.678C345.744 310.562 361.811 298.546 365.828 283.86L383.233 206.423C387.25 186.397 375.2 169.04 353.778 169.04H127.505C106.083 169.04 92.6936 186.397 96.7103 206.423Z" fill="white"/></g><mask id="mask2" mask-type="alpha" maskUnits="userSpaceOnUse" x="112" y="185" width="256" height="115"><path opacity="0.5" d="M149.77 299.389H330.232C341.586 299.389 351.52 288.285 354.359 274.009L367.645 204.214C369.065 194.696 363.388 185.179 354.872 185.179H125.129C116.614 185.179 110.937 194.696 112.356 204.214L124.223 274.009C127.062 289.872 136.997 299.389 149.77 299.389Z" fill="#F9FAFD"/></mask><g mask="url(#mask2)"><g opacity="0.7" filter="url(#filter3_i)"><path d="M149.77 299.389H330.232C341.586 299.389 351.52 288.285 354.359 274.009L367.645 204.213C369.065 194.696 363.388 185.178 354.872 185.178H125.129C116.614 185.178 110.937 194.696 112.356 204.213L124.223 274.009C127.062 289.871 136.997 299.389 149.77 299.389Z" fill="#7580F4"/></g><path opacity="0.4" d="M152.399 267.595H327.604C338.627 267.595 348.273 256.672 351.029 242.629L363.928 173.971C365.306 164.609 359.794 155.247 351.527 155.247H128.476C120.208 155.247 114.696 164.609 116.074 173.971L127.596 242.629C130.352 258.233 139.997 267.595 152.399 267.595Z" fill="#0013DD"/><path opacity="0.4" d="M161.159 229.249H318.844C328.765 229.249 337.446 219.412 339.926 206.765L351.536 144.936C352.776 136.504 347.815 128.073 340.375 128.073H139.628C132.188 128.073 127.227 136.504 128.467 144.936L138.837 206.765C141.317 220.817 149.998 229.249 161.159 229.249Z" fill="#0011C8"/><path opacity="0.8" d="M169.918 194.489H310.082C318.901 194.489 326.617 185.739 328.822 174.488L339.141 119.487C340.244 111.986 335.834 104.486 329.22 104.486H150.779C144.165 104.486 139.756 111.986 140.858 119.487L150.076 174.488C152.28 186.989 159.997 194.489 169.918 194.489Z" fill="#000D9C"/></g><path opacity="0.85" d="M358.712 141.729H122.646C118.576 141.729 115.863 138.75 115.863 134.28C115.863 129.811 118.576 126.832 122.646 126.832H357.355C361.425 126.832 364.139 129.811 364.139 134.28C364.139 138.75 361.425 141.729 358.712 141.729Z" fill="#E7F4FF"/><path opacity="0.7" d="M346.275 104.486H135.089C131.002 104.486 128.277 101.507 128.277 97.0378C128.277 92.5686 131.002 89.5892 135.089 89.5892H344.913C349 89.5892 351.725 92.5686 351.725 97.0378C351.725 101.507 349 104.486 346.275 104.486Z" fill="#E7F4FF"/><path opacity="0.5" d="M330.195 69.7266H149.804C145.825 69.7266 143.172 66.7472 143.172 62.2781C143.172 57.809 145.825 54.8296 149.804 54.8296H330.195C334.175 54.8296 336.828 57.809 336.828 62.2781C336.828 66.7472 334.175 69.7266 330.195 69.7266Z" fill="#E7F4FF"/><path opacity="0.3" d="M314.336 37.4497H165.664C161.852 37.4497 159.311 34.4703 159.311 30.0012C159.311 25.5321 161.852 22.5527 165.664 22.5527H314.336C318.148 22.5527 320.69 25.5321 320.69 30.0012C320.69 34.4703 318.148 37.4497 314.336 37.4497Z" fill="#E7F4FF"/><path opacity="0.15" d="M301.954 8.89704H178.046C174.253 8.89704 171.724 5.91763 171.724 1.44852C171.724 -3.02059 174.253 -6 178.046 -6H301.954C305.747 -6 308.276 -3.02059 308.276 1.44852C308.276 5.91763 305.747 8.89704 301.954 8.89704Z" fill="#E7F4FF"/></g></g><defs><filter id="filter0_i" x="96" y="169.04" width="288" height="145.522" filterUnits="userSpaceOnUse" color-interpolation-filters="sRGB"><feFlood flood-opacity="0" result="BackgroundImageFix"/><feBlend mode="normal" in="SourceGraphic" in2="BackgroundImageFix" result="shape"/><feColorMatrix in="SourceAlpha" type="matrix" values="0 0 0 0 0 0 0 0 0 0 0 0 0 0 0 0 0 0 127 0" result="hardAlpha"/><feOffset dy="4"/><feGaussianBlur stdDeviation="2"/><feComposite in2="hardAlpha" operator="arithmetic" k2="-1" k3="1"/><feColorMatrix type="matrix" values="0 0 0 0 1 0 0 0 0 1 0 0 0 0 1 0 0 0 1 0"/><feBlend mode="normal" in2="shape" result="effect1_innerShadow"/></filter><filter id="filter1_i" x="112.139" y="181.178" width="255.724" height="118.211" filterUnits="userSpaceOnUse" color-interpolation-filters="sRGB"><feFlood flood-opacity="0" result="BackgroundImageFix"/><feBlend mode="normal" in="SourceGraphic" in2="BackgroundImageFix" result="shape"/><feColorMatrix in="SourceAlpha" type="matrix" values="0 0 0 0 0 0 0 0 0 0 0 0 0 0 0 0 0 0 127 0" result="hardAlpha"/><feOffset dy="-4"/><feGaussianBlur stdDeviation="6"/><feComposite in2="hardAlpha" operator="arithmetic" k2="-1" k3="1"/><feColorMatrix type="matrix" values="0 0 0 0 0.203922 0 0 0 0 0.239216 0 0 0 0 0.607843 0 0 0 0.4 0"/><feBlend mode="normal" in2="shape" result="effect1_innerShadow"/></filter><filter id="filter2_i" x="96" y="169.04" width="288" height="145.522" filterUnits="userSpaceOnUse" color-interpolation-filters="sRGB"><feFlood flood-opacity="0" result="BackgroundImageFix"/><feBlend mode="normal" in="SourceGraphic" in2="BackgroundImageFix" result="shape"/><feColorMatrix in="SourceAlpha" type="matrix" values="0 0 0 0 0 0 0 0 0 0 0 0 0 0 0 0 0 0 127 0" result="hardAlpha"/><feOffset dy="4"/><feGaussianBlur stdDeviation="2"/><feComposite in2="hardAlpha" operator="arithmetic" k2="-1" k3="1"/><feColorMatrix type="matrix" values="0 0 0 0 1 0 0 0 0 1 0 0 0 0 1 0 0 0 1 0"/><feBlend mode="normal" in2="shape" result="effect1_innerShadow"/></filter><filter id="filter3_i" x="112.139" y="181.178" width="255.724" height="118.211" filterUnits="userSpaceOnUse" color-interpolation-filters="sRGB"><feFlood flood-opacity="0" result="BackgroundImageFix"/><feBlend mode="normal" in="SourceGraphic" in2="BackgroundImageFix" result="shape"/><feColorMatrix in="SourceAlpha" type="matrix" values="0 0 0 0 0 0 0 0 0 0 0 0 0 0 0 0 0 0 127 0" result="hardAlpha"/><feOffset dy="-4"/><feGaussianBlur stdDeviation="6"/><feComposite in2="hardAlpha" operator="arithmetic" k2="-1" k3="1"/><feColorMatrix type="matrix" values="0 0 0 0 0.203922 0 0 0 0 0.239216 0 0 0 0 0.607843 0 0 0 0.4 0"/><feBlend mode="normal" in2="shape" result="effect1_innerShadow"/></filter></defs></svg>

<svg viewBox="0 0 480 360" fill="none" xmlns="http://www.w3.org/2000/svg"><mask id="a" maskUnits="userSpaceOnUse" x="0" y="0" width="480" height="360"><path d="M0 12C0 5.373 5.373 0 12 0h468v360H12c-6.627 0-12-5.373-12-12V12z" fill="#7580F4"/></mask><g mask="url(#a)"><path d="M0 12C0 5.373 5.373 0 12 0h468v360H12c-6.627 0-12-5.373-12-12V12z" fill="#242C88"/><g style="mix-blend-mode:overlay"><g filter="url(#filter0_i)"><path d="M96.71 206.423l17.406 77.437c2.678 14.686 18.744 26.702 36.15 26.702h179.412c16.066 0 32.133-12.016 36.15-26.702l17.405-77.437c4.017-20.026-8.033-37.383-29.455-37.383H127.505c-21.422 0-34.811 17.357-30.795 37.383z" fill="#E7F4FF"/></g><mask id="b" maskUnits="userSpaceOnUse" x="112" y="185" width="256" height="115"><path opacity=".5" d="M149.77 299.389h180.462c11.354 0 21.288-11.104 24.127-25.38l13.286-69.795c1.42-9.518-4.257-19.035-12.773-19.035H125.129c-8.515 0-14.192 9.517-12.773 19.035l11.867 69.795c2.839 15.863 12.774 25.38 25.547 25.38z" fill="#F9FAFD"/></mask><g mask="url(#b)"><g opacity=".7" filter="url(#filter1_i)"><path d="M149.77 299.389h180.462c11.354 0 21.288-11.104 24.127-25.38l13.286-69.796c1.42-9.517-4.257-19.035-12.773-19.035H125.129c-8.515 0-14.192 9.518-12.773 19.035l11.867 69.796c2.839 15.862 12.774 25.38 25.547 25.38z" fill="#7580F4"/></g><path opacity=".4" d="M152.399 267.595h175.205c11.023 0 20.669-10.923 23.425-24.966l12.899-68.658c1.378-9.362-4.134-18.724-12.401-18.724H128.476c-8.268 0-13.78 9.362-12.402 18.724l11.522 68.658c2.756 15.604 12.401 24.966 24.803 24.966z" fill="#0013DD"/><path opacity=".4" d="M161.159 229.249h157.685c9.921 0 18.602-9.837 21.082-22.484l11.61-61.829c1.24-8.432-3.721-16.863-11.161-16.863H139.628c-7.44 0-12.401 8.431-11.161 16.863l10.37 61.829c2.48 14.052 11.161 22.484 22.322 22.484z" fill="#0011C8"/><path opacity=".5" d="M169.918 194.489h140.164c8.819 0 16.535-8.75 18.74-20.001l10.319-55.001c1.103-7.501-3.307-15.001-9.921-15.001H150.779c-6.614 0-11.023 7.5-9.921 15.001l9.218 55.001c2.204 12.501 9.921 20.001 19.842 20.001z" fill="#000FAF"/></g><path opacity=".85" d="M358.712 141.729H122.646c-4.07 0-6.783-2.979-6.783-7.449 0-4.469 2.713-7.448 6.783-7.448h234.709c4.07 0 6.784 2.979 6.784 7.448 0 4.47-2.714 7.449-5.427 7.449z" fill="#E7F4FF"/><path opacity=".7" d="M346.275 104.486H135.089c-4.087 0-6.812-2.979-6.812-7.448 0-4.47 2.725-7.449 6.812-7.449h209.824c4.087 0 6.812 2.98 6.812 7.449 0 4.469-2.725 7.448-5.45 7.448z" fill="#E7F4FF"/><path opacity=".5" d="M330.195 69.727H149.804c-3.979 0-6.632-2.98-6.632-7.449 0-4.469 2.653-7.448 6.632-7.448h180.391c3.98 0 6.633 2.979 6.633 7.448 0 4.47-2.653 7.449-6.633 7.449z" fill="#E7F4FF"/><path opacity=".3" d="M314.336 37.45H165.664c-3.812 0-6.353-2.98-6.353-7.449 0-4.469 2.541-7.448 6.353-7.448h148.672c3.812 0 6.354 2.98 6.354 7.448 0 4.47-2.542 7.449-6.354 7.449z" fill="#E7F4FF"/><path opacity=".15" d="M301.954 8.897H178.046c-3.793 0-6.322-2.98-6.322-7.448 0-4.47 2.529-7.449 6.322-7.449h123.908c3.793 0 6.322 2.98 6.322 7.449 0 4.469-2.529 7.448-6.322 7.448z" fill="#E7F4FF"/></g><g opacity=".6"><g filter="url(#filter2_i)"><path d="M96.71 206.423l17.406 77.437c2.678 14.686 18.744 26.702 36.15 26.702h179.412c16.066 0 32.133-12.016 36.15-26.702l17.405-77.437c4.017-20.026-8.033-37.383-29.455-37.383H127.505c-21.422 0-34.811 17.357-30.795 37.383z" fill="#fff"/></g><mask id="c" maskUnits="userSpaceOnUse" x="112" y="185" width="256" height="115"><path opacity=".5" d="M149.77 299.389h180.462c11.354 0 21.288-11.104 24.127-25.38l13.286-69.795c1.42-9.518-4.257-19.035-12.773-19.035H125.129c-8.515 0-14.192 9.517-12.773 19.035l11.867 69.795c2.839 15.863 12.774 25.38 25.547 25.38z" fill="#F9FAFD"/></mask><g mask="url(#c)"><g opacity=".7" filter="url(#filter3_i)"><path d="M149.77 299.389h180.462c11.354 0 21.288-11.104 24.127-25.38l13.286-69.796c1.42-9.517-4.257-19.035-12.773-19.035H125.129c-8.515 0-14.192 9.518-12.773 19.035l11.867 69.796c2.839 15.862 12.774 25.38 25.547 25.38z" fill="#7580F4"/></g><path opacity=".4" d="M152.399 267.595h175.205c11.023 0 20.669-10.923 23.425-24.966l12.899-68.658c1.378-9.362-4.134-18.724-12.401-18.724H128.476c-8.268 0-13.78 9.362-12.402 18.724l11.522 68.658c2.756 15.604 12.401 24.966 24.803 24.966z" fill="#0013DD"/><path opacity=".4" d="M161.159 229.249h157.685c9.921 0 18.602-9.837 21.082-22.484l11.61-61.829c1.24-8.432-3.721-16.863-11.161-16.863H139.628c-7.44 0-12.401 8.431-11.161 16.863l10.37 61.829c2.48 14.052 11.161 22.484 22.322 22.484z" fill="#0011C8"/><path opacity=".8" d="M169.918 194.489h140.164c8.819 0 16.535-8.75 18.74-20.001l10.319-55.001c1.103-7.501-3.307-15.001-9.921-15.001H150.779c-6.614 0-11.023 7.5-9.921 15.001l9.218 55.001c2.204 12.501 9.921 20.001 19.842 20.001z" fill="#000D9C"/></g><path opacity=".85" d="M358.712 141.729H122.646c-4.07 0-6.783-2.979-6.783-7.449 0-4.469 2.713-7.448 6.783-7.448h234.709c4.07 0 6.784 2.979 6.784 7.448 0 4.47-2.714 7.449-5.427 7.449z" fill="#E7F4FF"/><path opacity=".7" d="M346.275 104.486H135.089c-4.087 0-6.812-2.979-6.812-7.448 0-4.47 2.725-7.449 6.812-7.449h209.824c4.087 0 6.812 2.98 6.812 7.449 0 4.469-2.725 7.448-5.45 7.448z" fill="#E7F4FF"/><path opacity=".5" d="M330.195 69.727H149.804c-3.979 0-6.632-2.98-6.632-7.449 0-4.469 2.653-7.448 6.632-7.448h180.391c3.98 0 6.633 2.979 6.633 7.448 0 4.47-2.653 7.449-6.633 7.449z" fill="#E7F4FF"/><path opacity=".3" d="M314.336 37.45H165.664c-3.812 0-6.353-2.98-6.353-7.449 0-4.469 2.541-7.448 6.353-7.448h148.672c3.812 0 6.354 2.98 6.354 7.448 0 4.47-2.542 7.449-6.354 7.449z" fill="#E7F4FF"/><path opacity=".15" d="M301.954 8.897H178.046c-3.793 0-6.322-2.98-6.322-7.448 0-4.47 2.529-7.449 6.322-7.449h123.908c3.793 0 6.322 2.98 6.322 7.449 0 4.469-2.529 7.448-6.322 7.448z" fill="#E7F4FF"/></g></g><defs><filter id="filter0_i" x="96" y="169.04" width="288" height="145.522" filterUnits="userSpaceOnUse" color-interpolation-filters="sRGB"><feFlood flood-opacity="0" result="BackgroundImageFix"/><feBlend in="SourceGraphic" in2="BackgroundImageFix" result="shape"/><feColorMatrix in="SourceAlpha" values="0 0 0 0 0 0 0 0 0 0 0 0 0 0 0 0 0 0 127 0" result="hardAlpha"/><feOffset dy="4"/><feGaussianBlur stdDeviation="2"/><feComposite in2="hardAlpha" operator="arithmetic" k2="-1" k3="1"/><feColorMatrix values="0 0 0 0 1 0 0 0 0 1 0 0 0 0 1 0 0 0 1 0"/><feBlend in2="shape" result="effect1_innerShadow"/></filter><filter id="filter1_i" x="112.139" y="181.178" width="255.724" height="118.211" filterUnits="userSpaceOnUse" color-interpolation-filters="sRGB"><feFlood flood-opacity="0" result="BackgroundImageFix"/><feBlend in="SourceGraphic" in2="BackgroundImageFix" result="shape"/><feColorMatrix in="SourceAlpha" values="0 0 0 0 0 0 0 0 0 0 0 0 0 0 0 0 0 0 127 0" result="hardAlpha"/><feOffset dy="-4"/><feGaussianBlur stdDeviation="6"/><feComposite in2="hardAlpha" operator="arithmetic" k2="-1" k3="1"/><feColorMatrix values="0 0 0 0 0.203922 0 0 0 0 0.239216 0 0 0 0 0.607843 0 0 0 0.4 0"/><feBlend in2="shape" result="effect1_innerShadow"/></filter><filter id="filter2_i" x="96" y="169.04" width="288" height="145.522" filterUnits="userSpaceOnUse" color-interpolation-filters="sRGB"><feFlood flood-opacity="0" result="BackgroundImageFix"/><feBlend in="SourceGraphic" in2="BackgroundImageFix" result="shape"/><feColorMatrix in="SourceAlpha" values="0 0 0 0 0 0 0 0 0 0 0 0 0 0 0 0 0 0 127 0" result="hardAlpha"/><feOffset dy="4"/><feGaussianBlur stdDeviation="2"/><feComposite in2="hardAlpha" operator="arithmetic" k2="-1" k3="1"/><feColorMatrix values="0 0 0 0 1 0 0 0 0 1 0 0 0 0 1 0 0 0 1 0"/><feBlend in2="shape" result="effect1_innerShadow"/></filter><filter id="filter3_i" x="112.139" y="181.178" width="255.724" height="118.211" filterUnits="userSpaceOnUse" color-interpolation-filters="sRGB"><feFlood flood-opacity="0" result="BackgroundImageFix"/><feBlend in="SourceGraphic" in2="BackgroundImageFix" result="shape"/><feColorMatrix in="SourceAlpha" values="0 0 0 0 0 0 0 0 0 0 0 0 0 0 0 0 0 0 127 0" result="hardAlpha"/><feOffset dy="-4"/><feGaussianBlur stdDeviation="6"/><feComposite in2="hardAlpha" operator="arithmetic" k2="-1" k3="1"/><feColorMatrix values="0 0 0 0 0.203922 0 0 0 0 0.239216 0 0 0 0 0.607843 0 0 0 0.4 0"/><feBlend in2="shape" result="effect1_innerShadow"/></filter></defs></svg>
